img/icon-hamburger.svg

<svg height="40" viewBox="0 0 40 40" width="40" xmlns="http://www.w3.org/2000/svg"><g fill="none"><path d="m20 40c11.0450098 0 20-8.9549902 20-20 0-11.04500978-8.9549902-20-20-20-11.04500978 0-20 8.95499022-20 20 0 11.0450098 8.95499022 20 20 20" fill="#ede9e6"/><g fill="#000" transform="translate(7.749511 12.133072)"><path d="m23.2720157 6.66144814h-22.05088067c-.66536204 0-1.20547945.54011742-1.20547945 1.20547945 0 .66536204.54011741 1.20547946 1.20547945 1.20547946h22.05088067c.665362 0 1.2054794-.54011742 1.2054794-1.20547946.0078278-.66536203-.5322896-1.20547945-1.2054794-1.20547945z"/><path d="m21.667319.01565558h-18.83365951c-.66536203 0-1.20547945.54011741-1.20547945 1.20547945 0 .66536203.54011742 1.20547945 1.20547945 1.20547945h18.83365951c.665362 0 1.2054794-.54011742 1.2054794-1.20547945 0-.66536204-.5401174-1.20547945-1.2054794-1.20547945z"/><path d="m21.667319 13.2994129h-18.83365951c-.66536203 0-1.20547945.5401174-1.20547945 1.2054795 0 .665362.54011742 1.2054794 1.20547945 1.2054794h18.83365951c.665362 0 1.2054794-.5401174 1.2054794-1.2054794 0-.6653621-.5401174-1.2054795-1.2054794-1.2054795z"/></g></g></svg>

<?xml version="1.0" encoding="UTF-8"?>
<svg width="40px" height="40px" viewBox="0 0 40 40" version="1.1" xmlns="http://www.w3.org/2000/svg" xmlns:xlink="http://www.w3.org/1999/xlink">
    <!-- Generator: Sketch 43.1 (39012) - http://www.bohemiancoding.com/sketch -->
    <title>icon-hamburger</title>
    <desc>Created with Sketch.</desc>
    <defs></defs>
    <g id="Chat-View" stroke="none" stroke-width="1" fill="none" fill-rule="evenodd">
        <g id="Mobile-Portrait-title-text-avatars-smaller" transform="translate(-300.000000, -25.000000)" fill-rule="nonzero">
            <g id="icon-hamburger" transform="translate(300.000000, 25.000000)">
                <path d="M20,40 C31.0450098,40 40,31.0450098 40,20 C40,8.95499022 31.0450098,0 20,0 C8.95499022,0 0,8.95499022 0,20 C0,31.0450098 8.95499022,40 20,40" id="Shape" fill="#EDE9E6"></path>
                <g id="Group" transform="translate(7.749511, 12.133072)" fill="#000000">
                    <path d="M23.2720157,6.66144814 L1.22113503,6.66144814 C0.555772994,6.66144814 0.0156555773,7.20156556 0.0156555773,7.86692759 C0.0156555773,8.53228963 0.555772994,9.07240705 1.22113503,9.07240705 L23.2720157,9.07240705 C23.9373777,9.07240705 24.4774951,8.53228963 24.4774951,7.86692759 C24.4853229,7.20156556 23.9452055,6.66144814 23.2720157,6.66144814 Z" id="Shape"></path>
                    <path d="M21.667319,0.0156555773 L2.83365949,0.0156555773 C2.16829746,0.0156555773 1.62818004,0.555772994 1.62818004,1.22113503 C1.62818004,1.88649706 2.16829746,2.42661448 2.83365949,2.42661448 L21.667319,2.42661448 C22.332681,2.42661448 22.8727984,1.88649706 22.8727984,1.22113503 C22.8727984,0.555772994 22.332681,0.0156555773 21.667319,0.0156555773 Z" id="Shape"></path>
                    <path d="M21.667319,13.2994129 L2.83365949,13.2994129 C2.16829746,13.2994129 1.62818004,13.8395303 1.62818004,14.5048924 C1.62818004,15.1702544 2.16829746,15.7103718 2.83365949,15.7103718 L21.667319,15.7103718 C22.332681,15.7103718 22.8727984,15.1702544 22.8727984,14.5048924 C22.8727984,13.8395303 22.332681,13.2994129 21.667319,13.2994129 Z" id="Shape"></path>
                </g>
            </g>
        </g>
    </g>
</svg>
